Obsidian/status/16s/nemo-bookmark-not-found-symbolic.svg

<svg height="16" width="16" xmlns="http://www.w3.org/2000/svg"><path d="m1 7v7.142578c.000026.39668.456659.857422.875.857422h6.125v-6.125c0-.49244.38255-.875.875-.875h6.125v-1z" fill="#bebebe"/><path d="m1.875007 2.000435c-.533351 0-.725194.386351-.875007.85713v3.142435h13.999905l.000542-1.143304c.0021-.538864-.385668-.856748-.874893-.856744l-6.365554.000048-1.935503-1.999565z" fill="#bebebe"/><path d="m8.875 8c-.49245 0-.875.38256-.875.875v6.25c0 .49244.38255.875.875.875h6.25c.49245 0 .875-.38256.875-.875v-6.25c0-.49244-.38255-.875-.875-.875zm2.125 1h2v4h-2zm0 5h2v1h-2z" fill="#f57900"/></svg>

<?xml version="1.0" encoding="UTF-8" standalone="no"?>
<svg
   xmlns:dc="http://purl.org/dc/elements/1.1/"
   xmlns:cc="http://creativecommons.org/ns#"
   xmlns:rdf="http://www.w3.org/1999/02/22-rdf-syntax-ns#"
   xmlns:svg="http://www.w3.org/2000/svg"
   xmlns="http://www.w3.org/2000/svg"
   xmlns:xlink="http://www.w3.org/1999/xlink"
   xmlns:sodipodi="http://sodipodi.sourceforge.net/DTD/sodipodi-0.dtd"
   xmlns:inkscape="http://www.inkscape.org/namespaces/inkscape"
   style="display:inline"
   version="1.0"
   id="svg2"
   height="16"
   width="16"
   sodipodi:docname="nemo-bookmark-not-found-symbolic.svg"
   inkscape:version="0.92.4 (unknown)">
  <sodipodi:namedview
     pagecolor="#ffffff"
     bordercolor="#666666"
     borderopacity="1"
     objecttolerance="10"
     gridtolerance="10"
     guidetolerance="10"
     inkscape:pageopacity="0"
     inkscape:pageshadow="2"
     inkscape:window-width="1920"
     inkscape:window-height="1010"
     id="namedview40"
     showgrid="false"
     inkscape:zoom="14.75"
     inkscape:cx="0.13559322"
     inkscape:cy="8"
     inkscape:window-x="0"
     inkscape:window-y="32"
     inkscape:window-maximized="1"
     inkscape:current-layer="svg2" />
  <defs
     id="defs4">
    <linearGradient
       y2="16.529612"
       x2="11.998966"
       y1="3.6813121"
       x1="11.998966"
       gradientTransform="matrix(0.9247229,0,0,1.0872097,10.939944,-2.0023588)"
       gradientUnits="userSpaceOnUse"
       id="linearGradient2428"
       xlink:href="#StandardGradient" />
    <linearGradient
       gradientUnits="userSpaceOnUse"
       y2="19.387045"
       x2="11.998966"
       y1="0.92195445"
       x1="11.998966"
       gradientTransform="scale(0.9219544,1.0846523)"
       id="StandardGradient">
      <stop
         id="stop3283"
         offset="0"
         style="stop-color:#000000;stop-opacity:0.86274511;" />
      <stop
         id="stop2651"
         offset="1"
         style="stop-color:#000000;stop-opacity:0.47058824;" />
    </linearGradient>
    <linearGradient
       y2="17.478098"
       x2="11.998966"
       y1="0.92195445"
       x1="11.998966"
       gradientTransform="matrix(0.9247229,0,0,1.0872097,-2.0600562,0.9976422)"
       gradientUnits="userSpaceOnUse"
       id="linearGradient2549"
       xlink:href="#StandardGradient" />
    <linearGradient
       y2="17.478098"
       x2="11.998966"
       y1="0.92195445"
       x1="11.998966"
       gradientTransform="matrix(0.9247229,0,0,1.0872097,-4.0600562,-3.0023583)"
       gradientUnits="userSpaceOnUse"
       id="linearGradient2418"
       xlink:href="#StandardGradient" />
    <linearGradient
       y2="17.478098"
       x2="11.998966"
       y1="0.92195445"
       x1="11.998966"
       gradientTransform="matrix(0.9247229,0,0,1.0872097,-5.0600562,-1.0023583)"
       gradientUnits="userSpaceOnUse"
       id="linearGradient2422"
       xlink:href="#StandardGradient" />
    <linearGradient
       y2="17.478098"
       x2="11.998966"
       y1="0.92195445"
       x1="11.998966"
       gradientTransform="matrix(0.9247229,0,0,1.0872097,-4.0600562,-3.0023583)"
       gradientUnits="userSpaceOnUse"
       id="linearGradient2403"
       xlink:href="#StandardGradient" />
    <linearGradient
       y2="17.478098"
       x2="11.998966"
       y1="0.92195445"
       x1="11.998966"
       gradientTransform="matrix(0.9247229,0,0,1.0872097,-4.0600562,-3.0023583)"
       gradientUnits="userSpaceOnUse"
       id="linearGradient2406"
       xlink:href="#StandardGradient" />
    <linearGradient
       y2="15.638639"
       x2="11.998966"
       y1="3.6800685"
       x1="11.998966"
       gradientTransform="matrix(0.9247229,0,0,1.0872097,-6.0600562,-2.0023583)"
       gradientUnits="userSpaceOnUse"
       id="linearGradient2409"
       xlink:href="#StandardGradient" />
    <linearGradient
       y2="15.638639"
       x2="11.998966"
       y1="2.7615263"
       x1="11.998966"
       gradientTransform="matrix(0.9247229,0,0,1.0872097,-6.0600562,-2.0023583)"
       gradientUnits="userSpaceOnUse"
       id="linearGradient2416"
       xlink:href="#StandardGradient" />
    <linearGradient
       y2="16.529612"
       x2="11.998966"
       y1="3.6813121"
       x1="11.998966"
       gradientTransform="matrix(0.9247229,0,0,1.0872097,-4.0418814,0.9976412)"
       gradientUnits="userSpaceOnUse"
       id="linearGradient2529"
       xlink:href="#StandardGradient" />
    <linearGradient
       y2="15.638639"
       x2="11.998966"
       y1="2.7615263"
       x1="11.998966"
       gradientTransform="matrix(0.9247229,0,0,1.0872097,-6.0600562,-2.0023583)"
       gradientUnits="userSpaceOnUse"
       id="linearGradient2539"
       xlink:href="#StandardGradient" />
    <linearGradient
       y2="15.638639"
       x2="11.998966"
       y1="2.7615263"
       x1="11.998966"
       gradientTransform="matrix(0.9247229,0,0,1.0872097,-6.0600562,-2.0023583)"
       gradientUnits="userSpaceOnUse"
       id="linearGradient2542"
       xlink:href="#StandardGradient" />
    <linearGradient
       y2="15.638639"
       x2="11.998966"
       y1="2.7615263"
       x1="11.998966"
       gradientTransform="matrix(0.9247229,0,0,1.0872097,-6.0600562,-2.0023583)"
       gradientUnits="userSpaceOnUse"
       id="linearGradient2412"
       xlink:href="#StandardGradient" />
    <linearGradient
       y2="15.638639"
       x2="11.998966"
       y1="2.7615263"
       x1="11.998966"
       gradientTransform="matrix(0.9247229,0,0,1.0872097,-6.0600562,-2.0023583)"
       gradientUnits="userSpaceOnUse"
       id="linearGradient2423"
       xlink:href="#StandardGradient" />
    <linearGradient
       y2="15.638639"
       x2="11.998966"
       y1="2.7615263"
       x1="11.998966"
       gradientTransform="matrix(0.9247229,0,0,1.0872097,-26.060056,-2.0023583)"
       gradientUnits="userSpaceOnUse"
       id="linearGradient2942"
       xlink:href="#StandardGradient" />
    <clipPath
       id="clipPath2949"
       clipPathUnits="userSpaceOnUse">
      <path
         id="path2951"
         d="m -20,0 0,16 16,0 0,-16 -16,0 z m 3,1 3,0 c 0.554,0 1,0.446 1,1 l 6,0 c 0.554,0 1,0.446 1,1 l -12,0 0,-1 c 0,-0.554 0.446,-1 1,-1 z m -0.5,3 4,0 6,0 1,0 C -5.669,4 -5,4.669 -5,5.5 l 0,4.5 0,1.5 c 0,0.647488 -0.396277,1.195291 -0.96875,1.40625 l 0,0.15625 -0.03125,0 0,0.4375 c 0,0.831 -0.669,1.5 -1.5,1.5 l -6,0 c -0.831,0 -1.5,-0.669 -1.5,-1.5 l 0,-0.5 -2.5,0 c -0.831,0 -1.5,-0.669 -1.5,-1.5 l 0,-1.5 0,-4.5 C -19,4.669 -18.331,4 -17.5,4 z m 5,2 C -12.777,6 -13,6.223 -13,6.5 l 0,6 c 0,0.277 0.223,0.5 0.5,0.5 l 4,0 c 0.277,0 0.5,-0.223 0.5,-0.5 l 0,-6 C -8,6.223 -8.223,6 -8.5,6 l -4,0 z"
         style="fill:#ff00ff;fill-opacity:1;stroke:none;display:inline" />
    </clipPath>
    <linearGradient
       y2="15.638639"
       x2="11.998966"
       y1="2.7615263"
       x1="11.998966"
       gradientTransform="matrix(0.9247229,0,0,1.0872097,-6.0600562,-2.0023583)"
       gradientUnits="userSpaceOnUse"
       id="linearGradient5012"
       xlink:href="#StandardGradient" />
    <linearGradient
       y2="15.638639"
       x2="11.998966"
       y1="2.7615263"
       x1="11.998966"
       gradientTransform="matrix(0.9247229,0,0,1.0872097,-6.0600562,-2.0023583)"
       gradientUnits="userSpaceOnUse"
       id="linearGradient5016"
       xlink:href="#StandardGradient" />
    <linearGradient
       y2="15.638639"
       x2="11.998966"
       y1="2.7615263"
       x1="11.998966"
       gradientTransform="matrix(0.9247229,0,0,1.0872097,-6.0600562,-2.0023583)"
       gradientUnits="userSpaceOnUse"
       id="linearGradient3176"
       xlink:href="#StandardGradient" />
    <linearGradient
       y2="15.638639"
       x2="11.998966"
       y1="2.7615263"
       x1="11.998966"
       gradientTransform="matrix(0.9247229,0,0,1.0872097,-6.0600562,-2.0023583)"
       gradientUnits="userSpaceOnUse"
       id="linearGradient3180"
       xlink:href="#StandardGradient" />
    <linearGradient
       y2="15.638639"
       x2="11.998966"
       y1="2.7615263"
       x1="11.998966"
       gradientTransform="matrix(0.9247229,0,0,1.0872097,-6.0600562,-2.0023583)"
       gradientUnits="userSpaceOnUse"
       id="linearGradient3042"
       xlink:href="#StandardGradient" />
    <linearGradient
       y2="15.638639"
       x2="11.998966"
       y1="2.7615263"
       x1="11.998966"
       gradientTransform="matrix(0.9247229,0,0,1.0872097,-6.0600562,-2.0023583)"
       gradientUnits="userSpaceOnUse"
       id="linearGradient3047"
       xlink:href="#StandardGradient" />
    <linearGradient
       y2="15.638639"
       x2="11.998966"
       y1="2.7615263"
       x1="11.998966"
       gradientTransform="matrix(0.9247229,0,0,1.0872097,-6.0600562,-2.0023583)"
       gradientUnits="userSpaceOnUse"
       id="linearGradient3052"
       xlink:href="#StandardGradient" />
    <linearGradient
       y2="15.638639"
       x2="11.998966"
       y1="2.7615263"
       x1="11.998966"
       gradientTransform="matrix(0.9247229,0,0,1.0872097,-6.0600562,-2.0023583)"
       gradientUnits="userSpaceOnUse"
       id="linearGradient3059"
       xlink:href="#StandardGradient" />
    <linearGradient
       y2="15.638639"
       x2="11.998966"
       y1="2.7615263"
       x1="11.998966"
       gradientTransform="matrix(-0.9247229,0,0,1.0872097,22.060056,-2.0023583)"
       gradientUnits="userSpaceOnUse"
       id="linearGradient3062"
       xlink:href="#StandardGradient" />
    <linearGradient
       y2="15.638639"
       x2="11.998966"
       y1="2.7615263"
       x1="11.998966"
       gradientTransform="matrix(0.9247229,0,0,1.0872097,-6.0600562,-2.0023583)"
       gradientUnits="userSpaceOnUse"
       id="linearGradient3064"
       xlink:href="#StandardGradient" />
    <linearGradient
       y2="15.638639"
       x2="11.998966"
       y1="2.7615263"
       x1="11.998966"
       gradientTransform="matrix(0.9247229,0,0,1.0872097,-6.0600562,-1.0023583)"
       gradientUnits="userSpaceOnUse"
       id="linearGradient3067"
       xlink:href="#StandardGradient" />
    <linearGradient
       y2="15.638639"
       x2="11.998966"
       y1="2.7615263"
       x1="11.998966"
       gradientTransform="matrix(0.9247229,0,0,1.0872097,-6.0600562,-2.0023583)"
       gradientUnits="userSpaceOnUse"
       id="linearGradient3071"
       xlink:href="#StandardGradient" />
    <linearGradient
       y2="15.638639"
       x2="11.998966"
       y1="2.7615263"
       x1="11.998966"
       gradientTransform="matrix(0.9247229,0,0,1.0872097,-6.0600562,-2.0023583)"
       gradientUnits="userSpaceOnUse"
       id="linearGradient3074"
       xlink:href="#StandardGradient" />
  </defs>
  <metadata
     id="metadata7">
    <rdf:RDF>
      <cc:Work
         rdf:about="">
        <dc:format>image/svg+xml</dc:format>
        <dc:type
           rdf:resource="http://purl.org/dc/dcmitype/StillImage" />
        <dc:title />
      </cc:Work>
    </rdf:RDF>
  </metadata>
  <path
     style="fill:#bebebe;fill-opacity:1"
     d="m 1,7 v 7.142578 C 1.000026,14.539258 1.456659,15 1.875,15 H 8 V 8.875 C 8,8.38256 8.38255,8 8.875,8 H 15 V 7 Z"
     id="rect3845-3-6-7"
     inkscape:connector-curvature="0"
     sodipodi:nodetypes="ccscssccc" />
  <path
     id="rect3845-3-6-5"
     style="fill:#bebebe;fill-opacity:1"
     d="M 1.875007,2.000435 C 1.341656,2.000435 1.149813,2.386786 1,2.857565 V 6 h 13.999905 l 5.42e-4,-1.143304 C 15.002547,4.317832 14.614779,3.999948 14.125554,3.999952 L 7.76,4 5.824497,2.000435 Z"
     inkscape:connector-curvature="0"
     sodipodi:nodetypes="cscccsccc" />
  <path
     inkscape:connector-curvature="0"
     style="color:#bebebe;display:inline;overflow:visible;visibility:visible;fill:#f57900;fill-opacity:1;fill-rule:nonzero;stroke:none;stroke-width:2;marker:none"
     id="rect6718-3-3"
     d="M 8.875,8 C 8.38255,8 8,8.38256 8,8.875 v 6.25 C 8,15.61744 8.38255,16 8.875,16 h 6.25 C 15.61745,16 16,15.61744 16,15.125 V 8.875 C 16,8.38256 15.61745,8 15.125,8 Z M 11,9 h 2 v 4 h -2 z m 0,5 h 2 v 1 h -2 z"
     class="warning" />
</svg>
